ubuntu-mono-dark/stock/24/stock_person-panel.svg

<?xml version="1.0" encoding="UTF-8" standalone="no"?>
<!-- Created with Inkscape (http://www.inkscape.org/) -->

<svg
   xmlns:dc="http://purl.org/dc/elements/1.1/"
   xmlns:cc="http://creativecommons.org/ns#"
   xmlns:rdf="http://www.w3.org/1999/02/22-rdf-syntax-ns#"
   xmlns:svg="http://www.w3.org/2000/svg"
   xmlns="http://www.w3.org/2000/svg"
   xmlns:sodipodi="http://sodipodi.sourceforge.net/DTD/sodipodi-0.dtd"
   xmlns:inkscape="http://www.inkscape.org/namespaces/inkscape"
   version="1.0"
   width="24"
   height="24"
   id="svg3172"
   inkscape:version="0.48.0 r9654"
   sodipodi:docname="stock_person-panel.svg">
  <metadata
     id="metadata9">
    <rdf:RDF>
      <cc:Work
         rdf:about="">
        <dc:format>image/svg+xml</dc:format>
        <dc:type
           rdf:resource="http://purl.org/dc/dcmitype/StillImage" />
      </cc:Work>
    </rdf:RDF>
  </metadata>
  <sodipodi:namedview
     pagecolor="#ffffff"
     bordercolor="#666666"
     borderopacity="1"
     objecttolerance="10"
     gridtolerance="10"
     guidetolerance="10"
     inkscape:pageopacity="0"
     inkscape:pageshadow="2"
     inkscape:window-width="932"
     inkscape:window-height="611"
     id="namedview7"
     showgrid="false"
     inkscape:zoom="12.125"
     inkscape:cx="-0.53608247"
     inkscape:cy="12.865979"
     inkscape:window-x="0"
     inkscape:window-y="24"
     inkscape:window-maximized="0"
     inkscape:current-layer="svg3172" />
  <defs
     id="defs3174" />
  <path
     inkscape:connector-curvature="0"
     style="fill:#000000;fill-opacity:1;fill-rule:evenodd;stroke:none;stroke-width:1.00213277000000001;marker:none;visibility:visible;display:inline;overflow:visible;enable-background:accumulate;opacity:0.3"
     id="rect2382-4"
     d="M 11.914062,3.0000883 C 11.266101,2.9962046 10.697153,3.1203986 10.309896,3.37768 9.8102832,3.7096076 9.5900008,3.7517387 9.4505208,3.5229077 9.3170697,3.3039766 9.1957012,3.3284362 9.078125,3.6390897 8.9786988,3.9018128 8.7708423,4.0217529 8.5338542,3.929545 8.3079004,3.8416284 8.2152437,3.8699491 8.3046875,4.0166816 c 0.085951,0.1410267 0.043931,0.2614097 -0.085937,0.2614097 -0.1298688,0 -0.5457879,0.4449015 -0.9166667,0.9875476 -0.5912158,0.8650234 -0.6876512,1.2603722 -0.6875,3.0788252 8.23e-5,1.1409356 0.1127546,2.2518639 -0.2291666,2.3236419 -0.2005368,0.0421 -0.181445,0.835112 -0.085937,1.655595 0.1248913,1.072927 0.3114398,1.598545 0.8307291,2.091277 0.8088233,0.767455 1.546875,2.095938 1.546875,2.817416 -1e-7,1.031001 -2.5759983,2.901836 -6.2161458,4.531101 L 1,22.402496 1,24 l 22,0 0,-1.887959 -1.346354,-0.551865 c -3.108003,-1.311592 -5.815104,-3.322414 -5.815104,-4.327782 0,-0.719735 0.710216,-2.050732 1.518229,-2.817416 0.519282,-0.492732 0.734484,-1.01835 0.859375,-2.091277 0.0955,-0.820483 0.108411,-1.590118 -0.08594,-1.655595 -0.267794,-0.09022 -0.25781,-1.1920615 -0.25781,-2.3236419 C 17.872395,6.722437 17.770577,6.1188134 17.356771,5.4399121 16.533355,4.0890065 13.857948,3.0117395 11.914062,3.0000883 z" />
  <path
     inkscape:connector-curvature="0"
     style="fill:#dfdbd2;fill-opacity:1;fill-rule:evenodd;stroke:none;stroke-width:1.00213277;marker:none;visibility:visible;display:inline;overflow:visible;enable-background:accumulate"
     id="rect2382"
     d="M 11.914062,2.0000883 C 11.266101,1.9962046 10.697153,2.1203986 10.309896,2.37768 9.8102832,2.7096076 9.5900008,2.7517387 9.4505208,2.5229077 9.3170697,2.3039766 9.1957012,2.3284362 9.078125,2.6390897 8.9786988,2.9018128 8.7708423,3.0217529 8.5338542,2.929545 8.3079004,2.8416284 8.2152437,2.8699491 8.3046875,3.0166816 c 0.085951,0.1410267 0.043931,0.2614097 -0.085937,0.2614097 -0.1298688,0 -0.5457879,0.4449015 -0.9166667,0.9875476 -0.5912158,0.8650234 -0.6876512,1.2603722 -0.6875,3.0788252 8.23e-5,1.1409356 0.1127546,2.251864 -0.2291666,2.3236418 -0.2005368,0.042098 -0.181445,0.8351121 -0.085937,1.6555951 0.1248913,1.072927 0.3114398,1.598545 0.8307291,2.091277 0.8088233,0.767455 1.546875,2.095938 1.546875,2.817416 -1e-7,1.031001 -2.5759983,2.901836 -6.2161458,4.531101 L 1,21.402496 1,23 l 22,0 0,-1.887959 -1.346354,-0.551865 c -3.108003,-1.311592 -5.815104,-3.322414 -5.815104,-4.327782 0,-0.719735 0.710216,-2.050732 1.518229,-2.817416 0.519282,-0.492732 0.734484,-1.01835 0.859375,-2.091277 0.0955,-0.820483 0.108411,-1.5901177 -0.08594,-1.6555951 C 17.862412,9.5778817 17.872396,8.4760445 17.872396,7.3444641 17.872395,5.722437 17.770577,5.1188134 17.356771,4.4399121 16.533355,3.0890065 13.857948,2.0117395 11.914062,2.0000883 z" />
</svg>

<?xml version="1.0" encoding="UTF-8" standalone="no"?>
<!-- Created with Inkscape (http://www.inkscape.org/) -->
<svg
   xmlns:svg="http://www.w3.org/2000/svg"
   xmlns="http://www.w3.org/2000/svg"
   version="1.0"
   width="24"
   height="24"
   id="svg3172">
  <defs
     id="defs3174" />
  <g
     id="layer1">
    <path
       d="M 11.90625,1.5 C 11.195276,1.4957387 10.540158,1.6306476 10.03125,1.96875 C 9.8606635,2.0820823 9.807646,2.0997173 9.75,2.125 C 9.7200566,2.0901753 9.6997374,2.065989 9.65625,2.03125 C 9.5527085,1.9485381 9.3526388,1.8685533 9.15625,1.90625 C 8.9598612,1.9439467 8.8231936,2.0583377 8.75,2.15625 C 8.6768064,2.2541623 8.6331762,2.3333301 8.59375,2.4375 C 8.5555494,2.4259092 8.5116351,2.4139015 8.46875,2.40625 C 8.3829798,2.3909469 8.2997431,2.362791 8.125,2.4375 C 7.9575024,2.5091113 7.7849653,2.7703651 7.78125,2.9375 C 7.7792587,2.9393785 7.7832684,2.9669022 7.78125,2.96875 C 7.776204,2.9733694 7.7553014,2.964364 7.75,2.96875 C 7.6577556,3.0450671 7.5922368,3.1475251 7.5,3.25 C 7.3155264,3.4549497 7.10245,3.7129327 6.90625,4 C 6.5988282,4.4497968 6.3954525,4.8423942 6.28125,5.34375 C 6.1670475,5.8451058 6.1249237,6.4258556 6.125,7.34375 C 6.125042,7.9273588 6.1430376,8.4858427 6.125,8.875 C 6.1159812,9.0695787 6.1110545,9.2238074 6.09375,9.28125 C 6.116742,9.2514402 6.1986718,9.2048352 6.28125,9.1875 C 6.1029371,9.2249325 5.9706897,9.3387838 5.90625,9.4375 C 5.8418103,9.5362162 5.8008176,9.6072814 5.78125,9.6875 C 5.7421149,9.8479371 5.7514126,10.014215 5.75,10.1875 C 5.7471749,10.534071 5.7636136,10.955028 5.8125,11.375 C 5.9411039,12.47982 6.1734673,13.1733 6.78125,13.75 C 7.1387414,14.089207 7.5147411,14.586587 7.78125,15.0625 C 8.0477589,15.538413 8.1875,16.028698 8.1875,16.21875 C 8.1875,16.27217 8.1046158,16.51038 7.84375,16.8125 C 7.5828842,17.11462 7.1859498,17.489513 6.65625,17.875 C 5.5968503,18.645973 4.076856,19.508819 2.28125,20.3125 L 0.8125,20.96875 C 0.63052269,21.039364 0.50777699,21.211208 0.5,21.40625 L 0.5,23 C 0.4973146,23.133413 0.54913023,23.262157 0.64348683,23.356513 C 0.73784344,23.45087 0.86658663,23.502685 1,23.5 L 23,23.5 C 23.133413,23.502685 23.262157,23.45087 23.356513,23.356513 C 23.45087,23.262157 23.502685,23.133413 23.5,23 L 23.5,21.125 C 23.492223,20.929958 23.369477,20.758114 23.1875,20.6875 L 21.84375,20.125 C 20.326154,19.484567 18.899856,18.641571 17.875,17.875 C 17.362572,17.491714 16.954239,17.123187 16.6875,16.8125 C 16.420761,16.501813 16.34375,16.250321 16.34375,16.21875 C 16.34375,16.015979 16.467354,15.537147 16.71875,15.0625 C 16.970146,14.587853 17.335174,14.084305 17.6875,13.75 C 18.281026,13.18682 18.587975,12.498478 18.71875,11.375 C 18.768421,10.948256 18.79389,10.533482 18.78125,10.1875 C 18.77493,10.014509 18.760799,9.8437615 18.71875,9.6875 C 18.676701,9.5312385 18.606028,9.2969197 18.28125,9.1875 C 18.499041,9.2608771 18.457857,9.3562626 18.4375,9.28125 C 18.417143,9.2062374 18.38841,9.0402938 18.375,8.84375 C 18.348179,8.4506624 18.375,7.9121097 18.375,7.34375 C 18.374999,5.6980615 18.209748,4.9417754 17.75,4.1875 C 17.245806,3.360314 16.320283,2.7449213 15.25,2.28125 C 14.179717,1.8175787 12.967198,1.5063591 11.90625,1.5 z"
       transform="matrix(0.9998986,0,0,0.9998941,1.2164801e-3,1.3228823e-3)"
       id="path3170"
       style="opacity:0.6;fill:none;fill-opacity:1;fill-rule:evenodd;stroke:#3a3935;stroke-width:1.00010359;stroke-linecap:round;stroke-linejoin:round;marker:none;marker-start:none;marker-mid:none;marker-end:none;stroke-miterlimit:4;stroke-dasharray:none;stroke-dashoffset:0;stroke-opacity:1;visibility:visible;display:inline;overflow:visible;enable-background:accumulate" />
    <path
       d="M 11.914062,2.0000883 C 11.266101,1.9962046 10.697153,2.1203986 10.309896,2.37768 C 9.8102832,2.7096076 9.5900008,2.7517387 9.4505208,2.5229077 C 9.3170697,2.3039766 9.1957012,2.3284362 9.078125,2.6390897 C 8.9786988,2.9018128 8.7708423,3.0217529 8.5338542,2.929545 C 8.3079004,2.8416284 8.2152437,2.8699491 8.3046875,3.0166816 C 8.3906387,3.1577083 8.3486187,3.2780913 8.21875,3.2780913 C 8.0888812,3.2780913 7.6729621,3.7229928 7.3020833,4.2656389 C 6.7108675,5.1306623 6.6144321,5.5260111 6.6145833,7.3444641 C 6.6146656,8.4853997 6.7273379,9.5963281 6.3854167,9.6681059 C 6.1848799,9.7102039 6.2039717,10.503218 6.2994792,11.323701 C 6.4243705,12.396628 6.610919,12.922246 7.1302083,13.414978 C 7.9390316,14.182433 8.6770833,15.510916 8.6770833,16.232394 C 8.6770832,17.263395 6.101085,19.13423 2.4609375,20.763495 L 1,21.402496 L 1,23 L 23,23 L 23,21.112041 L 21.653646,20.560176 C 18.545643,19.248584 15.838542,17.237762 15.838542,16.232394 C 15.838542,15.512659 16.548758,14.181662 17.356771,13.414978 C 17.876053,12.922246 18.091255,12.396628 18.216146,11.323701 C 18.311646,10.503218 18.324557,9.7335833 18.130208,9.6681059 C 17.862412,9.5778817 17.872396,8.4760445 17.872396,7.3444641 C 17.872395,5.722437 17.770577,5.1188134 17.356771,4.4399121 C 16.533355,3.0890065 13.857948,2.0117395 11.914062,2.0000883 z"
       id="rect2382"
       style="opacity:1;fill:#eae3d0;fill-opacity:1;fill-rule:evenodd;stroke:none;stroke-width:1.00213277;stroke-linecap:round;stroke-linejoin:round;marker:none;marker-start:none;marker-mid:none;marker-end:none;stroke-miterlimit:4;stroke-dasharray:none;stroke-dashoffset:0;stroke-opacity:1;visibility:visible;display:inline;overflow:visible;enable-background:accumulate" />
  </g>
</svg>
